packages/sources/assets/src/assets/paysafe-card.svg

<svg width="58" height="40" viewBox="0 0 58 40" fill="none" xmlns="http://www.w3.org/2000/svg">
<rect x="0.5" y="0.5" width="57" height="39" rx="3.5" fill="white" stroke="#F3F3F3"/>
<path fill-rule="evenodd" clip-rule="evenodd" d="M32.3786 17.7964C32.3855 17.4888 32.5006 17.2418 32.7261 17.0565C32.9448 16.8685 33.2319 16.7717 33.5871 16.7664H34.3016V17.8673H33.8691C33.6313 17.8726 33.5097 17.9849 33.5048 18.2014V18.4428H34.3016V19.5835H33.5048V22.947H32.3786V17.7964ZM12.3097 19.8559C12.3041 19.6792 12.2196 19.588 12.0553 19.5821H11.1791C10.9714 19.5945 10.8646 19.7067 10.8593 19.9175V21.4716C10.8646 21.6894 10.9828 21.8004 11.2135 21.8067H12.0163C12.0999 21.8067 12.1693 21.7761 12.2246 21.7138C12.2823 21.6671 12.3097 21.6069 12.3097 21.5324V19.8559ZM9.73412 19.6352C9.73984 19.2465 9.82767 18.951 9.99816 18.7489C10.0873 18.6644 10.1992 18.5935 10.335 18.535C10.476 18.4726 10.6127 18.4425 10.7455 18.4425H12.3541C13.0637 18.4485 13.4244 18.831 13.4359 19.591V21.9299C13.4305 22.1997 13.3235 22.4338 13.116 22.6297C12.9111 22.8353 12.6659 22.9401 12.3806 22.9464H10.8593V24.6327H9.73412V19.6352ZM15.4671 21.5811C15.4671 21.6461 15.4973 21.6976 15.5572 21.7361C15.61 21.7826 15.6767 21.8067 15.7611 21.8067H16.6256C16.8212 21.8067 16.9224 21.7321 16.928 21.5811V21.2629C16.928 21.0893 16.8248 21.0017 16.6173 21.0017H15.7611C15.6487 21.0017 15.5708 21.0201 15.5274 21.055C15.4874 21.0961 15.4671 21.1774 15.4671 21.298V21.5811ZM16.928 19.8285C16.9337 19.658 16.8332 19.5765 16.6253 19.5821H14.3587V18.4425H16.9108C17.654 18.4543 18.0313 18.8086 18.0439 19.5073V21.8911C18.0377 22.1927 17.9441 22.4412 17.7624 22.6389C17.5722 22.8436 17.3273 22.9464 17.0271 22.9464H15.4845C14.7337 22.9401 14.3532 22.6024 14.3416 21.9307V21.0109C14.3473 20.3089 14.7112 19.9523 15.4312 19.94H16.928V19.8285ZM21.4339 23.3993C21.3709 23.4559 21.2941 23.4877 21.2048 23.493H18.9584V24.6327H21.5853C21.9114 24.627 22.167 24.513 22.3544 24.2899C22.5384 24.0669 22.6342 23.7728 22.6403 23.4056V18.4425H21.5244V21.5249C21.5244 21.5985 21.4914 21.6612 21.4248 21.7138C21.3562 21.7761 21.2741 21.8067 21.1797 21.8067H20.3854C20.1835 21.8067 20.0838 21.6865 20.0838 21.4457V18.4425H18.9584V21.8067C18.9584 21.9903 18.9844 22.1431 19.0359 22.263C19.0849 22.3942 19.1658 22.5199 19.2784 22.6399C19.3969 22.7532 19.5151 22.833 19.6334 22.8759C19.7455 22.9228 19.8957 22.9464 20.0838 22.9464H21.5244V23.2171C21.5244 23.2858 21.4942 23.3465 21.4339 23.3993ZM23.5239 21.8067H25.5291C25.7127 21.8004 25.8079 21.728 25.8136 21.5892V21.4867C25.8136 21.4572 25.8045 21.4243 25.7871 21.3888C25.7422 21.3028 25.6872 21.26 25.6218 21.26H24.6277C24.3326 21.2544 24.0808 21.1541 23.8692 20.9607C23.6553 20.7822 23.5455 20.5624 23.5393 20.3045V19.4547C23.551 18.7918 23.9163 18.4543 24.6359 18.4425H26.9616V19.5821H24.9914C24.76 19.5821 24.6437 19.652 24.6437 19.7912V19.9017C24.6437 20.0463 24.7627 20.1186 25 20.1186H25.9909C26.2552 20.1247 26.4801 20.2243 26.6678 20.4186C26.8573 20.6144 26.9556 20.8473 26.9616 21.1176V21.949C26.9556 22.1824 26.846 22.4155 26.6351 22.6479C26.5323 22.762 26.4272 22.8406 26.3221 22.8849C26.2132 22.9257 26.0655 22.9464 25.8765 22.9464H23.5239V21.8067ZM28.9785 21.7361C28.9176 21.6976 28.8874 21.6461 28.8874 21.5811V21.298C28.8874 21.1774 28.9084 21.0961 28.9484 21.055C28.9915 21.0201 29.069 21.0017 29.1813 21.0017H30.038C30.245 21.0017 30.3494 21.0893 30.3494 21.2629V21.5811C30.3436 21.7321 30.2428 21.8067 30.0472 21.8067H29.1813C29.098 21.8067 29.0309 21.7826 28.9785 21.7361ZM30.0457 19.5821C30.2537 19.5765 30.3543 19.658 30.3494 19.8285V19.94H28.852C28.1311 19.9523 27.7677 20.3089 27.7627 21.0109V21.9307C27.7732 22.6024 28.1543 22.9401 28.9045 22.9464H30.448C30.7487 22.9464 30.9939 22.8436 31.1828 22.6389C31.3635 22.4412 31.4578 22.1927 31.4638 21.8911V19.5073C31.4521 18.8086 31.0748 18.4543 30.3321 18.4425H27.7797V19.5821H30.0457ZM37.5023 19.7806V19.8072L36.091 20.3311V19.8735C36.091 19.7883 36.1307 19.7191 36.2086 19.6665C36.2713 19.6097 36.3523 19.5821 36.4529 19.5821H37.2361C37.313 19.5821 37.3772 19.5993 37.4296 19.6352C37.4782 19.6723 37.5023 19.722 37.5023 19.7806ZM36.109 21.4889V21.418L38.6476 20.4341V19.5331C38.6363 18.8175 38.2812 18.4543 37.5804 18.4425H36.0634C35.3458 18.4543 34.9806 18.8051 34.968 19.4944L34.9776 21.7752C34.9776 21.993 35.0006 22.1679 35.047 22.2995C35.0894 22.4259 35.1737 22.5487 35.2974 22.6695C35.4032 22.7689 35.5245 22.8406 35.6594 22.8843C35.7831 22.9257 35.9576 22.9464 36.1819 22.9464H38.64V21.8067H36.3283C36.2649 21.8067 36.2173 21.7725 36.1819 21.7052C36.133 21.6527 36.109 21.5802 36.109 21.4889ZM41.0297 22.9464C40.8592 22.9464 40.7037 22.9311 40.5627 22.9027C40.4148 22.879 40.2674 22.8113 40.1168 22.6974C39.9623 22.5647 39.8557 22.4162 39.7971 22.2518C39.7353 22.0904 39.7053 21.9076 39.7053 21.7017V19.5749C39.6991 19.4016 39.7167 19.2492 39.7578 19.1173C39.7958 18.9853 39.8752 18.8564 39.9953 18.73C40.1323 18.5973 40.272 18.5091 40.4198 18.4658C40.5616 18.4307 40.7216 18.4131 40.901 18.4131H42.6255V18.6795H40.9409C40.6435 18.6795 40.4097 18.7398 40.2387 18.8603C40.0637 18.9921 39.9748 19.2188 39.9748 19.5384V21.6666C39.9748 21.8163 39.9978 21.9618 40.0441 22.1024C40.0913 22.2406 40.1698 22.3617 40.283 22.4675C40.4054 22.5593 40.5277 22.6166 40.6467 22.6399C40.771 22.6669 40.9039 22.6796 41.0452 22.6796H42.6528V22.9464H41.0297ZM44.8004 20.1872H47.0616V21.786C47.0616 22.3763 46.7732 22.6737 46.2007 22.6796H44.8307C44.5943 22.6796 44.378 22.6007 44.1826 22.4412C44.0705 22.3536 43.9995 22.2518 43.9711 22.1379C43.9424 22.0295 43.9285 21.9092 43.9285 21.7776V21.0988C43.9285 20.8176 44.0066 20.596 44.1647 20.4348C44.3177 20.2759 44.5294 20.1934 44.8004 20.1872ZM47.2946 22.1734C47.317 22.0413 47.3302 21.8908 47.3302 21.7197V19.6763C47.3346 19.3329 47.2334 19.0284 47.0257 18.7642C46.957 18.6739 46.883 18.605 46.804 18.5578C46.729 18.5083 46.6479 18.4741 46.5585 18.4567C46.3854 18.4278 46.1938 18.4131 45.9821 18.4131H43.6657V18.6795H46.109C46.2649 18.6795 46.4047 18.6958 46.5293 18.7277C46.6525 18.7696 46.7609 18.8502 46.8526 18.9712C46.9972 19.1574 47.0697 19.3741 47.0697 19.621V19.9212H44.83C44.0598 19.9393 43.6688 20.3352 43.6575 21.109V21.7944C43.6575 22.1552 43.771 22.4364 43.995 22.6389C44.2144 22.8436 44.4977 22.9464 44.8468 22.9464H46.1915C46.5406 22.9527 46.8336 22.833 47.0697 22.5876C47.1832 22.4559 47.2581 22.3173 47.2946 22.1734ZM49.8589 18.6795C49.2316 18.6912 48.9226 19.0284 48.9344 19.6923V22.9464H48.6649V19.6934C48.6524 18.8394 49.0646 18.4131 49.9022 18.4131H50.2016V18.6795H49.8589ZM52.2824 18.681H54.4137V21.6682C54.4063 22.0356 54.2944 22.2936 54.0743 22.443C53.8556 22.6024 53.5708 22.6813 53.2229 22.6813H52.2912C52.1382 22.6813 51.9998 22.6651 51.8754 22.6326C51.7503 22.6031 51.6392 22.5593 51.5378 22.5009C51.3323 22.3748 51.2309 22.1401 51.2309 21.7952V19.7204C51.2246 19.5593 51.2423 19.4213 51.2817 19.3062C51.3117 19.1921 51.3823 19.078 51.4947 18.9629C51.6121 18.8365 51.7374 18.7589 51.8672 18.73C51.9913 18.6979 52.1289 18.681 52.2824 18.681ZM53.2999 22.9483C54.198 22.9661 54.659 22.5452 54.683 21.6865V16.9444H54.4137V18.4144H52.2988C51.4182 18.4078 50.9726 18.8414 50.9609 19.7135V21.6497C50.9545 21.8313 50.9726 21.9977 51.0138 22.147C51.0445 22.2969 51.121 22.443 51.24 22.5876C51.3982 22.7484 51.5627 22.8517 51.7344 22.8954C51.901 22.9302 52.0898 22.9483 52.3008 22.9483H53.2999Z" fill="#008ACA"/>
<path fill-rule="evenodd" clip-rule="evenodd" d="M3.74822 18.184C3.65997 18.2029 3.57158 18.2328 3.48326 18.2712C3.34409 18.3306 3.22593 18.4079 3.12241 18.4939C3.11866 18.3805 3.12078 18.2723 3.12799 18.1683C3.18018 16.9637 4.18417 16 5.41763 16C6.61544 16 7.59794 16.9065 7.70245 18.0616C7.71999 18.1946 7.72593 18.3361 7.71935 18.4829C7.55643 18.3329 7.34733 18.2319 7.09439 18.1848C6.93224 17.4204 6.24497 16.8461 5.42109 16.8461C4.59756 16.8461 3.91065 17.4197 3.74822 18.184ZM3.60107 18.535C3.74221 18.4727 3.87918 18.4426 4.01156 18.4426H6.75991C7.46966 18.4486 7.83087 18.831 7.84225 19.591V21.7976C7.83087 22.5564 7.46966 22.9402 6.75991 22.9464H4.01156C3.87918 22.9464 3.74221 22.9158 3.60107 22.8546C3.46508 22.7956 3.35321 22.7249 3.26397 22.6389C3.09327 22.4378 3.00601 22.1428 3 21.7531V19.6353C3.00601 19.2465 3.09327 18.951 3.26397 18.7489C3.35321 18.6644 3.46508 18.5936 3.60107 18.535Z" fill="#E2001A"/>
</svg>

<svg width="58" height="40" fill="none" xmlns="http://www.w3.org/2000/svg"><rect x=".5" y=".5" width="57" height="39" rx="3.5" fill="#fff" stroke="#F3F3F3"/><path fill-rule="evenodd" clip-rule="evenodd" d="M32.379 17.796a.938.938 0 0 1 .347-.74c.219-.188.506-.284.861-.29h.715v1.101h-.433c-.238.006-.36.118-.364.334v.242h.797v1.14h-.797v3.364h-1.126v-5.15Zm-20.07 2.06c-.005-.177-.09-.268-.254-.274h-.876c-.208.012-.314.125-.32.335v1.555c.006.217.124.328.354.335h.803c.084 0 .153-.03.209-.093a.221.221 0 0 0 .085-.182v-1.676Zm-2.575-.22c.006-.39.094-.685.264-.887.09-.085.201-.155.337-.214.141-.062.278-.093.41-.093h1.61c.709.006 1.07.389 1.08 1.149v2.339a.96.96 0 0 1-.319.7c-.205.205-.45.31-.735.316h-1.522v1.687H9.734v-4.998Zm5.733 1.945c0 .065.03.117.09.155.053.047.12.07.204.07h.865c.195 0 .296-.074.302-.225v-.318c0-.174-.103-.261-.31-.261h-.857c-.112 0-.19.018-.234.053-.04.041-.06.122-.06.243v.283Zm1.461-1.753c.006-.17-.095-.252-.303-.246H14.36v-1.14h2.552c.743.012 1.12.367 1.133 1.065v2.384c-.006.302-.1.55-.282.748a.958.958 0 0 1-.735.307h-1.543c-.75-.006-1.13-.344-1.142-1.015v-.92c.005-.702.37-1.059 1.09-1.071h1.496v-.112Zm4.506 3.571a.366.366 0 0 1-.23.094h-2.246v1.14h2.627c.326-.006.582-.12.77-.343.183-.223.28-.517.285-.884v-4.963h-1.116v3.082a.234.234 0 0 1-.1.189.352.352 0 0 1-.244.093h-.795c-.202 0-.301-.12-.301-.361v-3.004h-1.126v3.365a1.134 1.134 0 0 0 .32.833c.119.113.237.193.355.236.113.047.263.07.45.07h1.441v.271c0 .069-.03.13-.09.182Zm2.09-1.592h2.005c.184-.007.279-.079.285-.218v-.102a.23.23 0 0 0-.027-.098c-.045-.086-.1-.129-.165-.129h-.994a1.118 1.118 0 0 1-.759-.3.854.854 0 0 1-.33-.655v-.85c.012-.663.377-1 1.097-1.012h2.326v1.14h-1.97c-.232 0-.348.069-.348.208v.11c0 .145.119.218.356.218h.99c.265.006.49.105.678.3a1 1 0 0 1 .294.699v.831c-.006.233-.116.466-.327.699a.906.906 0 0 1-.313.237c-.109.04-.256.061-.445.061h-2.353v-1.14Zm5.454-.07c-.06-.04-.09-.09-.09-.156v-.283c0-.12.02-.202.06-.243.043-.035.121-.053.233-.053h.857c.207 0 .311.087.311.26v.32c-.005.15-.106.225-.302.225h-.866a.294.294 0 0 1-.203-.07Zm1.068-2.155c.208-.006.308.076.303.246v.112h-1.497c-.72.012-1.084.369-1.09 1.07v.92c.011.672.392 1.01 1.142 1.016h1.544c.3 0 .546-.102.735-.307a1.1 1.1 0 0 0 .28-.748v-2.384c-.01-.698-.388-1.053-1.13-1.065H27.78v1.14h2.266Zm7.456.199v.026l-1.411.524v-.457a.24.24 0 0 1 .118-.207.349.349 0 0 1 .244-.085h.783c.077 0 .141.017.194.053a.176.176 0 0 1 .072.146Zm-1.393 1.708v-.071l2.539-.984v-.9c-.012-.716-.367-1.08-1.068-1.091h-1.517c-.717.011-1.082.362-1.095 1.051l.01 2.281c0 .218.023.393.069.524.042.127.127.25.25.37.106.1.228.172.362.215.124.042.299.062.523.062h2.458v-1.14h-2.312c-.063 0-.11-.034-.146-.1a.305.305 0 0 1-.073-.217Zm4.92 1.457c-.17 0-.325-.015-.466-.043a1.006 1.006 0 0 1-.446-.206 1.056 1.056 0 0 1-.32-.445 1.528 1.528 0 0 1-.092-.55v-2.127a1.373 1.373 0 0 1 .053-.458.954.954 0 0 1 .237-.387c.137-.133.277-.22.425-.264.142-.035.302-.053.481-.053h1.724v.267h-1.684c-.297 0-.531.06-.702.18-.175.132-.264.359-.264.678v2.129c0 .15.023.295.07.435a.87.87 0 0 0 .238.366.906.906 0 0 0 .364.172c.124.027.257.04.398.04h1.608v.266H41.03Zm3.771-2.759h2.262v1.599c0 .59-.289.888-.861.894h-1.37a1 1 0 0 1-.648-.239.559.559 0 0 1-.212-.303 1.409 1.409 0 0 1-.042-.36v-.68c0-.28.078-.502.236-.663.153-.16.364-.242.635-.248Zm2.495 1.986c.022-.132.035-.282.035-.453v-2.044a1.405 1.405 0 0 0-.304-.912.798.798 0 0 0-.468-.307 3.509 3.509 0 0 0-.576-.044h-2.316v.267h2.443c.156 0 .296.016.42.048a.68.68 0 0 1 .324.243c.144.186.217.403.217.65v.3h-2.24c-.77.018-1.161.414-1.172 1.188v.685c0 .361.113.642.337.845.22.205.503.307.852.307h1.344c.35.007.643-.113.879-.358a1.02 1.02 0 0 0 .225-.415Zm2.564-3.493c-.627.011-.936.348-.925 1.012v3.254h-.27v-3.253c-.012-.854.4-1.28 1.238-1.28h.3v.267h-.343Zm2.423.001h2.132v2.987c-.008.368-.12.626-.34.775-.218.16-.503.238-.851.238h-.932c-.153 0-.291-.016-.416-.048a1.238 1.238 0 0 1-.337-.132c-.206-.126-.307-.36-.307-.706V19.72c-.006-.16.011-.299.05-.414a.79.79 0 0 1 .214-.343.734.734 0 0 1 .372-.233c.124-.032.262-.049.415-.049Zm1.018 4.267c.898.018 1.359-.403 1.383-1.262v-4.742h-.27v1.47H52.3c-.88-.006-1.326.427-1.338 1.3v1.936a1.65 1.65 0 0 0 .053.497c.03.15.107.296.226.44.158.161.323.265.494.308.167.035.356.053.567.053h.999Z" fill="#008ACA"/><path fill-rule="evenodd" clip-rule="evenodd" d="M3.748 18.184a1.456 1.456 0 0 0-.626.31 3.18 3.18 0 0 1 .006-.326A2.281 2.281 0 0 1 5.418 16c1.197 0 2.18.907 2.284 2.062.018.133.024.274.017.42a1.237 1.237 0 0 0-.625-.297 1.704 1.704 0 0 0-1.673-1.339c-.823 0-1.51.574-1.673 1.338Zm-.147.351c.141-.062.278-.092.41-.092H6.76c.71.006 1.07.388 1.082 1.148v2.207c-.011.758-.372 1.142-1.082 1.148H4.012c-.133 0-.27-.03-.41-.091a1.12 1.12 0 0 1-.338-.216c-.17-.201-.258-.496-.264-.886v-2.118c.006-.389.093-.684.264-.886.09-.085.201-.155.337-.214Z" fill="#E2001A"/></svg>
